X:1
T:Title
%%score { ( 1 3 5 ) | ( 2 4 ) }
L:1/8
Q:1/4=92
M:4/4
K:F
V:1 treble nm="Grand Piano"
V:3 treble 
V:5 treble 
V:2 bass 
V:4 bass 
V:1
 A>A _A=A BA_A=A | d>c cF A2 A2 | [EA]>[EG] [EG][E^F] [EG]2 [EA]2 | z4 F4 | A>A _A=A BA_A=A | %5
w: J.~Lincoln~Hall * * * * * * *|||||
 d>c cF A2 A2 | G>c cc =B>d dd |[M:3/4] c4 z2 |[M:1/4] c>c |[M:4/4] [Bd]2 z2 z dc=B | %10
w: |||||
 [Ac]2 z2 F2 c>c | [Bd]2 z2 z [Bd][Ac]=B |[M:3/4] [Ac]6 |[M:1/4] A2 |[M:4/4] D2 DE FFED | A6 z2 | %16
w: ||||||
 D2 DE FGA[DFG=B] |[M:5/4] c2- c4- c z z2 |[M:4/4] A>A _A=A BA_A=A | d>c cF A2 A2 | %20
w: ||||
 [EA]>[EG] [EG][E^F] [EG]2 [EA]2 | z4 F4 | A>A _A=A BA_A=A | %23
w: |||
[M:9/8] d>d[GBe] [GBe] [FAdf]2- [FAdf]FG |[M:4/4] [FA]>[Fc] [Fc][Fc] [Ed][Ec][EB][EG] | %25
w: ||
[M:3/4] [CF]6 |] %26
w: |
V:2
 [F,CF]>[F,CF] [F,=B,F][F,CF] [F,DF][F,CF][F,B,F][F,CF] | %1
 [F,B,F]>[F,A,F] [F,A,F][F,A,C] [F,CF]2 [F,CF]2 | [C,B,]>[C,B,] [C,B,][C,A,] [C,B,]2 [C,C]2 | %3
 [F,B,C]>[F,A,C] [F,A,C][F,G,C] [A,C]2 z2 | %4
 [F,CF]>[F,CF] [F,=B,F][F,CF] [F,DF][F,CF][F,B,F][F,CF] | %5
 [F,B,F]>[F,A,F] [F,A,F][F,A,C][K:treble] [F,CF]2 [F,CF]2 | %6
 [G,CE]>[G,CE] [G,CE][G,CE] [G,DF]>[G,=B,F] [G,B,F][G,B,F] | %7
[M:3/4][K:bass] z2[K:treble] c'/b/g/e/ c2 |[M:1/4] E>E | %9
[M:4/4][K:bass] z4[K:treble] [B,C]2 [B,CE]2 | z4[K:treble] z2 [A,CF]2 | z4 z2[K:treble] [G,B,CE]2 | %12
[M:3/4][K:bass] F,,2 A,2 A,2 |[M:1/4] A,2 |[M:4/4] D,2 D,E, F,F,E,D, | A,,>A,, D,D, A,,2 A,2 | %16
 D,2 D,E, F,G,A,[G,,G,] |[M:5/4] [C,G,]>[C,G,] [C,C][C,C] [C,C]3[K:treble] [EGBc]3 | %18
[M:4/4] [F,CF]>[F,CF] [F,=B,F][F,CF][K:bass] [F,DF][F,CF][F,B,F][F,CF] | %19
 [F,B,F]>[F,A,F] [F,A,F][F,A,C] [F,CF]2 [F,CF]2 | [C,B,]>[C,B,] [C,B,][C,A,] [C,B,]2 [C,C]2 | %21
 z4 [A,C]2 z2 | [F,CF]>[F,CF] [F,=B,F][F,CF] [F,DF][F,CF][F,B,F][F,CF] | %23
[M:9/8] [B,DFB]>[B,DFB][K:bass][G,B,CE] [G,B,CE] [D,F,A,D]2- [D,F,A,D] [D,A,D]2 | %24
[M:4/4] [C,C]>[C,A,] [C,A,][C,A,] [C,G,][C,G,][C,C][C,B,] |[M:3/4] [F,A,]6 |] %26
V:3
 x8 | x8 | x8 | G>F FE z2 C2 | x8 | x8 | x8 |[M:3/4] [CE]6 |[M:1/4] x2 |[M:4/4] z2 [GB]4 z2 | %10
 z2 A4 z2 | z2 [GB]4 z2 |[M:3/4] z2 [CF]2 [CF]2 |[M:1/4] x2 |[M:4/4] x8 | %15
 [A,^CE]>[A,CE] [A,DF][A,DF] [A,CE]2 A2 | x8 |[M:5/4] [EG]>[EG] [FA][FA] [EGB]3 [egc']3 | %18
[M:4/4] x8 | x8 | x8 | G>F FE z2 C2 | x8 |[M:9/8] x9 |[M:4/4] x8 |[M:3/4] x6 |] %26
V:4
 x8 | x8 | x8 | z4 F,4 | x8 | x4[K:treble] x4 | x8 |[M:3/4][K:bass] C,6[K:treble] |[M:1/4] x2 | %9
[M:4/4][K:bass] [C,,C,]2 [B,CE]2[K:treble] z BA_A | F,,2[K:treble] [A,CF]2 [A,C]2 A>A | %11
 [C,,C,]2 [G,B,CE]2 [G,B,]2[K:treble] z _A |[M:3/4][K:bass] x6 |[M:1/4] x2 |[M:4/4] x8 | x8 | x8 | %17
[M:5/4] x7[K:treble] x3 |[M:4/4] x4[K:bass] x4 | x8 | x8 | [F,B,C]>[F,A,C] [F,A,C][F,G,C] F,4 | %22
 x8 |[M:9/8] x2[K:bass] x7 |[M:4/4] x8 |[M:3/4] x6 |] %26
V:5
 x8 | x8 | x8 | x8 | x8 | x8 | x8 |[M:3/4] x6 |[M:1/4] x2 |[M:4/4] z4 E2 z2 | x8 | z4 [CE]2 z2 | %12
[M:3/4] x6 |[M:1/4] x2 |[M:4/4] x8 | x8 | x8 |[M:5/4] x10 |[M:4/4] x8 | x8 | x8 | x8 | x8 | %23
[M:9/8] x9 |[M:4/4] x8 |[M:3/4] x6 |] %26

